X:1
T:John Anderson, My Jo
M:4/4
L:1/4
K:G
 z3 B,| B, E EE/2-F/2| G2 GA/2-G/2| F3/2 E/2 D C| D3 B,| B, E E E/2F/2|\
 G2 G A| B3/2 A/2 G A| B3d/2-c/2| B3/2 A/2 G A| B- c dc/2-B/2| A3/2 G/2 F G|\
 A3G/2-A/2| BA/2-G/2 AG/2-F/2| GF/2-E/2 FE/2-D/2| B, E E D| E3 z|
